X:150
T:Eavesdropper, The
R:jig
H:Also played in A, #155
D:Paddy Keenan: Port an Phiobaire
D:Dolores Keane & John Faulkner: Broken Hearted I'll Wander
Z:id:hn-jig-150
M:6/8
K:A
Ecc cBA|cee ecA|def ecA|cBB BAF|Ecc cBA|cee ecA|def ecB|1 cAG A2F:|2 cAG Ace||
aga bge|fga ecA|def ecA|cBB Bce|aga bge|fga ecA|def ecB|1 cAG Ace:|2 cAG A2F||
